icons/global/user-settings/server-boost.svg

<svg xmlns="http://www.w3.org/2000/svg" width="24" height="24" fill="none">
  <path fill="#000" d="M12 0 4 8v8l8 8 8-8V8l-8-8Zm6 15.18-6 6-6-6V8.82l6-6 6 6v6.36Z"/>
  <path fill="#000" d="M8 9.66v4.68l4 4 4-4V9.66l-4-4-4 4Z"/>
</svg>

<svg width="24" height="24" viewBox="0 0 24 24" fill="none" xmlns="http://www.w3.org/2000/svg">
<path d="M12 0L4 8V16L12 24L20 16V8L12 0ZM18 15.18L12 21.18L6 15.18V8.82L12 2.82L18 8.82V15.18Z" fill="black"/>
<path d="M8 9.65997V14.34L12 18.34L16 14.34V9.65997L12 5.65997L8 9.65997Z" fill="black"/>
</svg>
